src/assets/icons-components/instagram.svg

<svg width="50" height="49" viewBox="0 0 50 49" fill="none" xmlns="http://www.w3.org/2000/svg">
    <path fill-rule="evenodd" clip-rule="evenodd" d="M24.7002 0C11.1692 0 0.200195 10.969 0.200195 24.5C0.200195 38.031 11.1692 49 24.7002 49C38.2312 49 49.2002 38.031 49.2002 24.5C49.2002 10.969 38.2312 0 24.7002 0ZM13.2158 16.8438C13.2158 14.7295 14.9297 13.0156 17.0439 13.0156H32.3564C34.4707 13.0156 36.1846 14.7295 36.1846 16.8438V32.1562C36.1846 34.2705 34.4707 35.9844 32.3564 35.9844H17.0439C14.9297 35.9844 13.2158 34.2705 13.2158 32.1562V16.8438ZM10.9189 16.8438C10.9189 13.461 13.6612 10.7188 17.0439 10.7188H32.3564C35.7392 10.7188 38.4814 13.461 38.4814 16.8438V32.1562C38.4814 35.539 35.7392 38.2812 32.3564 38.2812H17.0439C13.6612 38.2812 10.9189 35.539 10.9189 32.1562V16.8438ZM24.7002 29.8594C27.6601 29.8594 30.0596 27.4599 30.0596 24.5C30.0596 21.5401 27.6601 19.1406 24.7002 19.1406C21.7403 19.1406 19.3408 21.5401 19.3408 24.5C19.3408 27.4599 21.7403 29.8594 24.7002 29.8594ZM24.7002 32.1562C28.9286 32.1562 32.3565 28.7284 32.3565 24.5C32.3565 20.2716 28.9286 16.8438 24.7002 16.8438C20.4718 16.8438 17.044 20.2716 17.044 24.5C17.044 28.7284 20.4718 32.1562 24.7002 32.1562ZM31.9736 19.1406C33.0307 19.1406 33.8877 18.2837 33.8877 17.2266C33.8877 16.1695 33.0307 15.3125 31.9736 15.3125C30.9165 15.3125 30.0596 16.1695 30.0596 17.2266C30.0596 18.2837 30.9165 19.1406 31.9736 19.1406Z" fill="black"/>
</svg>

<svg  width="50" height="49" viewBox="0 0 50 49" fill="none" xmlns="http://www.w3.org/2000/svg"><path fill-rule="evenodd" clip-rule="evenodd" d="M24.7 0C11.17 0 .2 10.969.2 24.5S11.17 49 24.7 49c13.531 0 24.5-10.969 24.5-24.5S38.231 0 24.7 0ZM13.216 16.844a3.828 3.828 0 0 1 3.828-3.828h15.312a3.828 3.828 0 0 1 3.829 3.828v15.312a3.828 3.828 0 0 1-3.829 3.828H17.044a3.828 3.828 0 0 1-3.828-3.828V16.844Zm-2.297 0a6.125 6.125 0 0 1 6.125-6.125h15.312a6.125 6.125 0 0 1 6.125 6.125v15.312a6.125 6.125 0 0 1-6.125 6.125H17.044a6.125 6.125 0 0 1-6.125-6.125V16.844ZM24.7 29.859a5.36 5.36 0 1 0 0-10.718 5.36 5.36 0 0 0 0 10.718Zm0 2.297a7.656 7.656 0 1 0 0-15.312 7.656 7.656 0 0 0 0 15.312Zm7.274-13.015a1.914 1.914 0 1 0 0-3.829 1.914 1.914 0 0 0 0 3.829Z" fill="#000"/></svg>
